humanity-icon-theme/Humanity/categories/64/application-community.svg

<?xml version="1.0" encoding="UTF-8" standalone="no"?>
<!-- Created with Inkscape (http://www.inkscape.org/) -->
<svg
   xmlns:svg="http://www.w3.org/2000/svg"
   xmlns="http://www.w3.org/2000/svg"
   xmlns:xlink="http://www.w3.org/1999/xlink"
   version="1.0"
   width="64.000084"
   height="64.000084"
   id="svg1">
  <defs
     id="defs3">
    <linearGradient
       id="linearGradient2790">
      <stop
         id="stop2792"
         style="stop-color:#000000;stop-opacity:1"
         offset="0" />
      <stop
         id="stop2794"
         style="stop-color:#000000;stop-opacity:0"
         offset="1" />
    </linearGradient>
    <linearGradient
       id="linearGradient2780">
      <stop
         id="stop2782"
         style="stop-color:#ffffff;stop-opacity:1"
         offset="0" />
      <stop
         id="stop2784"
         style="stop-color:#ffffff;stop-opacity:0"
         offset="1" />
    </linearGradient>
    <linearGradient
       id="linearGradient6621">
      <stop
         id="stop6622"
         style="stop-color:#f5a108;stop-opacity:0"
         offset="0" />
      <stop
         id="stop6623"
         style="stop-color:#fefdc3;stop-opacity:0.74251497"
         offset="1" />
    </linearGradient>
    <linearGradient
       x1="22.819513"
       y1="28.829224"
       x2="12.849945"
       y2="12.239423"
       id="linearGradient7881"
       xlink:href="#linearGradient6621"
       gradientUnits="userSpaceOnUse"
       gradientTransform="matrix(1.4125286,0,0,0.7265943,1.6664317,6.2125354)" />
    <linearGradient
       x1="24"
       y1="5.0793009"
       x2="24"
       y2="41.0793"
       id="linearGradient2786"
       xlink:href="#linearGradient2780"
       gradientUnits="userSpaceOnUse"
       gradientTransform="matrix(1.3373432,0,0,1.3416742,-0.2629916,2.323733)" />
    <radialGradient
       cx="24.375"
       cy="37.75"
       r="17.375"
       fx="24.375"
       fy="37.75"
       id="radialGradient2796"
       xlink:href="#linearGradient2790"
       gradientUnits="userSpaceOnUse"
       gradientTransform="matrix(1.3333352,0,0,0.5899288,-3.7916374e-8,28.813597)" />
    <linearGradient
       id="linearGradient3242">
      <stop
         id="stop3244"
         style="stop-color:#f8b17e;stop-opacity:1"
         offset="0" />
      <stop
         id="stop3246"
         style="stop-color:#e35d4f;stop-opacity:1"
         offset="0.31209752" />
      <stop
         id="stop3248"
         style="stop-color:#c6262e;stop-opacity:1"
         offset="0.57054454" />
      <stop
         id="stop3250"
         style="stop-color:#690b54;stop-opacity:1"
         offset="1" />
    </linearGradient>
    <linearGradient
       id="linearGradient2490">
      <stop
         id="stop2492"
         style="stop-color:#791235;stop-opacity:1"
         offset="0" />
      <stop
         id="stop2494"
         style="stop-color:#dd3b27;stop-opacity:1"
         offset="1" />
    </linearGradient>
    <linearGradient
       x1="24"
       y1="6"
       x2="24"
       y2="51"
       id="linearGradient3853"
       xlink:href="#linearGradient3242"
       gradientUnits="userSpaceOnUse"
       gradientTransform="matrix(1.3140645,0,0,1.3309371,0.3073108,0.2733841)" />
    <linearGradient
       x1="17"
       y1="45"
       x2="17"
       y2="6"
       id="linearGradient3861"
       xlink:href="#linearGradient2490"
       gradientUnits="userSpaceOnUse"
       gradientTransform="matrix(1.3140645,0,0,1.3309371,0.3073108,0.2733841)" />
  </defs>
  <path
     d="M 55.666743,51.083404 C 55.666743,56.74433 45.294659,61.333417 32.500045,61.333417 C 19.705431,61.333417 9.3333462,56.74433 9.3333462,51.083404 C 9.3333462,45.422478 19.705431,40.83339 32.500045,40.83339 C 45.294659,40.83339 55.666743,45.422478 55.666743,51.083404 z"
     id="path2788"
     style="opacity:0.3;fill:url(#radialGradient2796);fill-opacity:1;fill-rule:nonzero;stroke:none;stroke-width:1;marker:none;visibility:visible;display:inline;overflow:visible" />
  <path
     d="M 18.716614,11.333628 C 11.559417,10.981485 8.2250827,15.577348 6.4214664,19.949343 C 4.6316036,25.706691 7.161716,36.580967 19.560463,35.753697 C 26.632648,35.753697 29.443588,28.504104 33.165641,26.622151 C 36.548291,25.343681 36.814519,25.229259 40.388341,25.229259 C 45.354842,25.229259 54.336166,21.636471 54.336169,18.071587 C 52.809583,15.210985 48.756702,10.116695 41.309274,10.984957 C 36.568684,11.536468 32.083805,14.923667 30.912289,16.609148 C 28.04247,14.07899 24.378146,11.333628 18.716614,11.333628 z"
     id="path7876"
     style="fill:url(#linearGradient7881);fill-opacity:1;fill-rule:evenodd;stroke:none" />
  <path
     d="M 31.63009,13.847095 C 43.836006,1.4896083 60.609794,12.879556 60.49946,24.599072 C 60.398593,35.312749 52.333394,40.443661 32.071433,59.500087 C 10.863264,41.772159 3.3908657,37.684032 3.5012017,24.972613 C 3.6115375,11.814366 17.971314,1.9390416 31.63009,13.847095 z"
     id="path920"
     style="fill:url(#linearGradient3853);fill-opacity:1;fill-rule:evenodd;stroke:url(#linearGradient3861);stroke-width:0.99999994;stroke-linecap:butt;stroke-linejoin:miter;stroke-miterlimit:4;stroke-dasharray:none;stroke-opacity:1" />
  <path
     d="M 19.964325,9.577159 C 18.850933,9.4815379 17.740991,9.5057015 16.704551,9.6610138 C 9.7888687,10.69734 4.5656348,17.028726 4.5012937,24.629067 C 4.4477813,30.73562 6.0478013,34.429132 10.477546,39.13592 C 14.746712,43.672083 21.822151,50.106435 32,58.500084 C 41.739734,49.465931 48.788448,42.416 53.147155,37.668462 C 57.670346,32.741767 59.451815,29.272279 59.499534,24.25172 C 59.548723,19.07622 55.67616,13.642405 50.347092,11.086543 C 45.018023,8.53068 38.474599,8.6607673 32.669086,14.482655 C 32.120413,15.021692 31.25454,15.057886 30.663071,14.56651 C 26.95016,11.36019 23.304503,9.8640217 19.964325,9.577159 L 19.964325,9.577159 z"
     id="path2778"
     style="opacity:0.4;fill:none;stroke:url(#linearGradient2786);stroke-width:0.99999994;stroke-linecap:butt;stroke-linejoin:miter;stroke-miterlimit:4;stroke-dasharray:none;stroke-opacity:1" />
</svg>

<?xml version="1.0" encoding="UTF-8" standalone="no"?>
<!-- Created with Inkscape (http://www.inkscape.org/) -->
<svg id="svg1" xmlns="http://www.w3.org/2000/svg" height="64" width="64" version="1.0" xmlns:xlink="http://www.w3.org/1999/xlink">
 <defs id="defs3">
  <linearGradient id="linearGradient7881" y2="12.239" gradientUnits="userSpaceOnUse" x2="12.85" gradientTransform="matrix(1.4125 0 0 .72659 1.6664 6.2125)" y1="28.829" x1="22.82">
   <stop id="stop6622" style="stop-color:#f5a108;stop-opacity:0" offset="0"/>
   <stop id="stop6623" style="stop-color:#fefdc3;stop-opacity:.74251" offset="1"/>
  </linearGradient>
  <linearGradient id="linearGradient2786" y2="41.079" gradientUnits="userSpaceOnUse" x2="24" gradientTransform="matrix(1.3373 0 0 1.3417 -.26299 2.3237)" y1="5.0793" x1="24">
   <stop id="stop2782" style="stop-color:#fff" offset="0"/>
   <stop id="stop2784" style="stop-color:#fff;stop-opacity:0" offset="1"/>
  </linearGradient>
  <radialGradient id="radialGradient2796" gradientUnits="userSpaceOnUse" cy="37.75" cx="24.375" gradientTransform="matrix(1.3333 0 0 .58993 -3.7916e-8 28.814)" r="17.375">
   <stop id="stop2792" offset="0"/>
   <stop id="stop2794" style="stop-opacity:0" offset="1"/>
  </radialGradient>
  <linearGradient id="linearGradient3853" y2="51" gradientUnits="userSpaceOnUse" x2="24" gradientTransform="matrix(1.3141 0 0 1.3309 .30731 .27338)" y1="6" x1="24">
   <stop id="stop3244" style="stop-color:#f8b17e" offset="0"/>
   <stop id="stop3246" style="stop-color:#e35d4f" offset=".31210"/>
   <stop id="stop3248" style="stop-color:#c6262e" offset=".57054"/>
   <stop id="stop3250" style="stop-color:#690b54" offset="1"/>
  </linearGradient>
  <linearGradient id="linearGradient3861" y2="6" gradientUnits="userSpaceOnUse" x2="17" gradientTransform="matrix(1.3141 0 0 1.3309 .30731 .27338)" y1="45" x1="17">
   <stop id="stop2492" style="stop-color:#791235" offset="0"/>
   <stop id="stop2494" style="stop-color:#dd3b27" offset="1"/>
  </linearGradient>
 </defs>
 <path id="path2788" style="opacity:.3;fill:url(#radialGradient2796)" d="m55.667 51.083c0 5.661-10.372 10.25-23.167 10.25s-23.167-4.589-23.167-10.25c0.0003-5.661 10.372-10.25 23.167-10.25s23.167 4.589 23.167 10.25z"/>
 <path id="path7876" style="fill:url(#linearGradient7881);fill-rule:evenodd" d="m18.717 11.334c-7.158-0.353-10.492 4.243-12.296 8.615-1.7894 5.758 0.7407 16.632 13.139 15.805 7.073 0 9.884-7.25 13.606-9.132 3.382-1.278 3.649-1.393 7.222-1.393 4.967 0 13.948-3.593 13.948-7.157-1.526-2.861-5.579-7.955-13.027-7.087-4.74 0.551-9.225 3.939-10.397 5.624-2.87-2.53-6.534-5.275-12.195-5.275z"/>
 <path id="path920" style="fill-rule:evenodd;stroke:url(#linearGradient3861);fill:url(#linearGradient3853)" d="m31.63 13.847c12.206-12.357 28.98-0.967 28.869 10.752-0.1 10.714-8.166 15.845-28.428 34.901-21.208-17.728-28.68-21.816-28.57-34.527 0.1105-13.159 14.47-23.034 28.129-11.126z"/>
 <path id="path2778" style="opacity:.4;stroke:url(#linearGradient2786);fill:none" d="m19.964 9.5772c-1.113-0.0957-2.223-0.0715-3.259 0.0838-6.9161 1.036-12.139 7.368-12.204 14.968-0.0532 6.107 1.5468 9.8 5.977 14.507 4.269 4.536 11.344 10.97 21.522 19.364 9.74-9.034 16.788-16.084 21.147-20.832 4.523-4.926 6.305-8.396 6.353-13.416 0.049-5.176-3.824-10.61-9.153-13.165-5.329-2.5563-11.872-2.4262-17.678 3.396-0.549 0.539-1.414 0.575-2.006 0.084-3.713-3.207-7.358-4.703-10.699-4.9898z"/>
</svg>
